X:1
T:Title
%%score { 1 | 2 }
L:1/8
Q:1/4=100
M:3/4
K:Eb
V:1 treble nm="Grand Piano"
V:2 bass 
V:1
 E2 E2 F2 | G3 F E2 | [DF]2 [DF]2 [EG]2 | [FA]3 [EG] [DF]2 | [EG]2 [EG]2 [E=A]2 | [DB]6 | %6
w: Robert~Lowry * *||||||
 [EG]2 [EA]2 [Ac]2 | [GB]3 [FA] G2 | F2 G2 A2 | G3 [FA] [GB]2 | [Ac]2 [Ad]2 [Ge]2 | %11
w: |||||
 [B,FB]3 [B,DA] [B,EG]2 | [CEA]2 [B,EG]2 [A,DF]2 | [G,E]6 |] %14
w: |||
V:2
 [E,G,]2 [E,G,]2 [E,A,E]2 | [E,B,E]3 [E,A,D] [E,G,]2 | [B,,B,]2 [B,,B,]2 [B,,B,]2 | %3
 [B,,B,]3 [B,,B,] [B,,B,]2 | [E,B,]2 [C,C]2 [F,C]2 | [B,,B,]6 | [E,B,]2 [E,C]2 [E,E]2 | %7
 [E,E]3 [D,B,] [E,B,E]2 | [A,B,D]2 [G,B,E]2 [F,B,D]2 | [E,B,E]3 [E,B,] [E,E]2 | %10
 [A,E]2 [F,B,]2 [E,B,]2 | D,3 B,, E,2 | A,,2 B,,2 B,,2 | E,6 |] %14

